packages/icons/src/network.svg

<svg viewBox="0 0 25 25" fill="none" xmlns="http://www.w3.org/2000/svg">
<g filter="url(#filter0_dd_13238_235064)">
<path d="M21.8428 12.1546H16.5592C16.4386 12.1546 16.3412 12.0569 16.3412 11.9366C16.3412 11.8162 16.4386 11.7185 16.5592 11.7185H21.57C21.8133 11.1865 21.9367 10.6232 21.9367 10.0423C21.9367 7.80596 20.1173 5.98648 17.8809 5.98648C17.706 5.98648 17.522 6.00108 17.3011 6.0327L17.0945 6.06235L17.0561 5.85718C16.6972 3.94199 15.0218 2.55203 13.0726 2.55203C11.1232 2.55203 9.44784 3.94199 9.08918 5.85718L9.05081 6.06257L8.84411 6.03292C8.62324 6.0013 8.43922 5.98669 8.26436 5.98669C6.02801 5.98669 4.20853 7.80617 4.20853 10.0425C4.20853 10.6234 4.33171 11.1865 4.57504 11.7188H9.7278C9.84815 11.7188 9.94583 11.8164 9.94583 11.9368C9.94583 12.0571 9.84815 12.1548 9.7278 12.1548H4.30228L4.2421 12.0336C3.93053 11.4052 3.77246 10.7354 3.77246 10.0425C3.77246 7.56568 5.78752 5.55063 8.26436 5.55063C8.40303 5.55063 8.54584 5.5587 8.70304 5.5757C9.17661 3.5589 10.9824 2.11597 13.0726 2.11597C15.1629 2.11597 16.9684 3.5589 17.4422 5.5757C17.5996 5.5587 17.7422 5.55063 17.8811 5.55063C20.3577 5.55063 22.373 7.56568 22.373 10.0425C22.373 10.7357 22.2149 11.4055 21.9032 12.0336L21.8428 12.1546Z" fill="#0278D5"/>
<path fill-rule="evenodd" clip-rule="evenodd" d="M8.50564 5.29656C9.08237 3.27753 10.9371 1.85449 13.0726 1.85449C15.2082 1.85449 17.0627 3.27756 17.6396 5.29657C17.722 5.2916 17.8019 5.28916 17.8811 5.28916C20.5021 5.28916 22.6344 7.42122 22.6344 10.0424C22.6344 10.7764 22.4668 11.4859 22.1373 12.1497L22.0044 12.4159H16.5592C16.2941 12.4159 16.0798 12.201 16.0798 11.9365C16.0798 11.6719 16.2941 11.4571 16.5592 11.4571H21.3983C21.5824 11.0044 21.6754 10.53 21.6754 10.0422C21.6754 7.95019 19.9729 6.24772 17.8809 6.24772C17.7212 6.24772 17.5499 6.26101 17.3382 6.29131L16.8836 6.35652L16.7992 5.90521C16.7992 5.90518 16.7992 5.90524 16.7992 5.90521C16.4635 4.11377 14.8961 2.81328 13.0726 2.81328C11.2489 2.81328 9.68163 4.11368 9.3461 5.90507C9.3461 5.90511 9.34611 5.90503 9.3461 5.90507L9.26171 6.35675L8.80709 6.29153C8.59541 6.26123 8.42408 6.24794 8.26437 6.24794C6.17236 6.24794 4.4699 7.95041 4.4699 10.0424C4.4699 10.5303 4.56271 11.0045 4.74682 11.4573H9.7278C9.9925 11.4573 10.2072 11.672 10.2072 11.9367C10.2072 12.2014 9.9925 12.4161 9.7278 12.4161H4.14024L4.00801 12.1497C3.67879 11.4857 3.51111 10.7761 3.51111 10.0424C3.51111 7.42123 5.64318 5.28916 8.26437 5.28916C8.34341 5.28916 8.42333 5.2916 8.50564 5.29656Z" fill="#0278D5"/>
<path d="M13.2912 18.5518V9.44435C13.2912 9.324 13.1936 9.22632 13.0732 9.22632C12.9528 9.22632 12.8552 9.324 12.8552 9.44435V18.5518C12.075 18.6588 11.4713 19.328 11.4713 20.1369C11.4713 21.0201 12.1899 21.7388 13.0732 21.7388C13.9564 21.7388 14.6751 21.0201 14.6751 20.1369C14.6749 19.328 14.0713 18.6586 13.2912 18.5518ZM13.0732 21.3027C12.4304 21.3027 11.9074 20.7799 11.9074 20.1369C11.9074 19.4939 12.4302 18.9711 13.0732 18.9711C13.7162 18.9711 14.239 19.4939 14.239 20.1369C14.239 20.7799 13.716 21.3027 13.0732 21.3027Z" fill="#0278D5"/>
<path fill-rule="evenodd" clip-rule="evenodd" d="M12.5938 9.44448C12.5938 9.17978 12.8085 8.96509 13.0732 8.96509C13.3379 8.96509 13.5526 9.17978 13.5526 9.44448V18.3383C14.3479 18.5502 14.9362 19.2749 14.9364 20.1369V20.137C14.9364 21.1646 14.1008 22.0002 13.0732 22.0002C12.0456 22.0002 11.21 21.1646 11.21 20.137C11.21 19.2748 11.7986 18.5504 12.5938 18.3384V9.44448ZM13.0732 19.2325C12.5746 19.2325 12.1687 19.6384 12.1687 20.137C12.1687 20.6356 12.5748 21.0415 13.0732 21.0415C13.5717 21.0415 13.9777 20.6356 13.9777 20.137C13.9777 19.6384 13.5718 19.2325 13.0732 19.2325Z" fill="#0278D5"/>
<path d="M20.8606 14.2162C20.0514 14.2162 19.3823 14.8197 19.2755 15.6001H15.3633V9.44435C15.3633 9.324 15.2659 9.22632 15.1453 9.22632C15.0247 9.22632 14.9272 9.324 14.9272 9.44435V16.0359H19.2755C19.3825 16.816 20.0517 17.4198 20.8606 17.4198C21.7438 17.4198 22.4624 16.7011 22.4624 15.8179C22.4624 14.9346 21.7438 14.2162 20.8606 14.2162ZM20.8606 16.9837C20.2178 16.9837 19.6947 16.4608 19.6947 15.8179C19.6947 15.1749 20.2176 14.6521 20.8606 14.6521C21.5035 14.6521 22.0264 15.1749 22.0264 15.8179C22.0264 16.4608 21.5035 16.9837 20.8606 16.9837Z" fill="#0278D5"/>
<path fill-rule="evenodd" clip-rule="evenodd" d="M14.6659 9.44448C14.6659 9.17995 14.8802 8.96509 15.1453 8.96509C15.4104 8.96509 15.6247 9.17995 15.6247 9.44448V15.3388H19.0619C19.2737 14.5434 19.9982 13.955 20.8606 13.955C21.8881 13.955 22.7238 14.7904 22.7238 15.818C22.7238 16.8456 21.8882 17.6812 20.8606 17.6812C19.9984 17.6812 19.2739 17.0926 19.0619 16.2974H14.6659V9.44448ZM20.8606 14.9135C20.3619 14.9135 19.9561 15.3194 19.9561 15.818C19.9561 16.3166 20.3621 16.7225 20.8606 16.7225C21.3592 16.7225 21.765 16.3166 21.765 15.818C21.765 15.3194 21.3592 14.9135 20.8606 14.9135Z" fill="#0278D5"/>
<path d="M11.2259 9.44435C11.2259 9.324 11.1282 9.22632 11.0078 9.22632C10.8875 9.22632 10.7898 9.324 10.7898 9.44435V15.5998H6.86239C6.75556 14.8197 6.08642 14.216 5.2773 14.216C4.39405 14.216 3.67542 14.9346 3.67542 15.8179C3.67542 16.7011 4.39405 17.4198 5.2773 17.4198C6.08642 17.4198 6.75534 16.8162 6.86239 16.0359H11.2259V9.44435ZM5.2773 16.9837C4.63454 16.9837 4.11148 16.4608 4.11148 15.8179C4.11148 15.1749 4.63432 14.6521 5.2773 14.6521C5.92006 14.6521 6.4429 15.1749 6.4429 15.8179C6.4429 16.4608 5.91984 16.9837 5.2773 16.9837Z" fill="#0278D5"/>
<path fill-rule="evenodd" clip-rule="evenodd" d="M10.5285 9.44448C10.5285 9.17978 10.7431 8.96509 11.0078 8.96509C11.2725 8.96509 11.4872 9.17978 11.4872 9.44448V16.2974H7.07595C6.864 17.0928 6.13971 17.6812 5.27731 17.6812C4.24971 17.6812 3.41406 16.8456 3.41406 15.818C3.41406 14.7904 4.24971 13.9548 5.27731 13.9548C6.13966 13.9548 6.86414 14.5433 7.07599 15.3386H10.5285V9.44448ZM5.27731 14.9135C4.77868 14.9135 4.37285 15.3194 4.37285 15.818C4.37285 16.3166 4.77886 16.7225 5.27731 16.7225C5.7755 16.7225 6.18155 16.3166 6.18155 15.818C6.18155 15.3193 5.77569 14.9135 5.27731 14.9135Z" fill="#0278D5"/>
<path d="M6.09344 8.93793C6.06117 8.93793 6.02847 8.93074 5.99751 8.91548C5.88936 8.86228 5.84488 8.73168 5.89808 8.62353C6.30122 7.80373 7.11885 7.29419 8.03196 7.29419C8.13618 7.29419 8.24389 7.30269 8.37144 7.32101C8.49049 7.33801 8.57334 7.44856 8.55633 7.56782C8.53911 7.68687 8.42857 7.76863 8.30952 7.75271C8.20312 7.73745 8.11482 7.73025 8.03218 7.73025C7.28651 7.73025 6.6189 8.14626 6.28967 8.81584C6.25129 8.89324 6.17389 8.93793 6.09344 8.93793Z" fill="#0278D5"/>
<path fill-rule="evenodd" clip-rule="evenodd" d="M6.13226 8.73875C6.1323 8.73869 6.13233 8.73862 6.13236 8.73855L6.13226 8.73875ZM5.66321 8.50805C6.11026 7.59898 7.01876 7.03271 8.03161 7.03271C8.15075 7.03271 8.27112 7.0425 8.40823 7.06219L8.37109 7.32089L8.40805 7.06216C8.40811 7.06217 8.40817 7.06218 8.40823 7.06219C8.67035 7.09973 8.85205 7.34283 8.81472 7.6046L8.81465 7.60513C8.77649 7.86887 8.53262 8.04616 8.27453 8.01165L8.27205 8.01132L8.27205 8.01131C8.17437 7.9973 8.09889 7.9915 8.03183 7.9915C7.3859 7.9915 6.80918 8.35077 6.52386 8.93105L6.52348 8.93182L6.52348 8.93182C6.43957 9.10106 6.26962 9.19918 6.09308 9.19918C6.02162 9.19918 5.94928 9.18316 5.88159 9.14979" fill="#0278D5"/>
</g>
<defs>
<filter id="filter0_dd_13238_235064" x="-2" y="-1.5" width="28" height="28" filterUnits="userSpaceOnUse" color-interpolation-filters="sRGB">
<feFlood flood-opacity="0" result="BackgroundImageFix"/>
<feColorMatrix in="SourceAlpha" type="matrix" values="0 0 0 0 0 0 0 0 0 0 0 0 0 0 0 0 0 0 127 0" result="hardAlpha"/>
<feOffset dy="0.5"/>
<feGaussianBlur stdDeviation="1"/>
<feColorMatrix type="matrix" values="0 0 0 0 0.376471 0 0 0 0 0.380392 0 0 0 0 0.439216 0 0 0 0.16 0"/>
<feBlend mode="normal" in2="BackgroundImageFix" result="effect1_dropShadow_13238_235064"/>
<feColorMatrix in="SourceAlpha" type="matrix" values="0 0 0 0 0 0 0 0 0 0 0 0 0 0 0 0 0 0 127 0" result="hardAlpha"/>
<feOffset/>
<feGaussianBlur stdDeviation="0.5"/>
<feColorMatrix type="matrix" values="0 0 0 0 0.156863 0 0 0 0 0.160784 0 0 0 0 0.239216 0 0 0 0.08 0"/>
<feBlend mode="normal" in2="effect1_dropShadow_13238_235064" result="effect2_dropShadow_13238_235064"/>
<feBlend mode="normal" in="SourceGraphic" in2="effect2_dropShadow_13238_235064" result="shape"/>
</filter>
</defs>
</svg>

<svg viewBox="0 0 25 25" fill="none" xmlns="http://www.w3.org/2000/svg"><g filter="url(#a)" fill="#0278D5"><path d="M21.843 12.155h-5.284a.218.218 0 1 1 0-.436h5.011a4.002 4.002 0 0 0 .367-1.677 4.06 4.06 0 0 0-4.056-4.056c-.175 0-.359.015-.58.047l-.206.03-.039-.206a4.054 4.054 0 0 0-7.967 0l-.038.206-.207-.03a4.036 4.036 0 0 0-.58-.046 4.06 4.06 0 0 0-4.055 4.056c0 .58.123 1.144.366 1.676h5.153a.218.218 0 0 1 0 .436H4.302l-.06-.121a4.446 4.446 0 0 1-.47-1.992 4.497 4.497 0 0 1 4.492-4.491c.139 0 .282.008.439.025a4.49 4.49 0 0 1 8.74 0c.157-.017.3-.025.438-.025a4.497 4.497 0 0 1 4.492 4.492c0 .693-.158 1.363-.47 1.99l-.06.122Z"/><path fill-rule="evenodd" clip-rule="evenodd" d="M8.506 5.297a4.752 4.752 0 0 1 9.134 0 4.758 4.758 0 0 1 4.995 4.746c0 .733-.168 1.443-.498 2.107l-.133.266H16.56a.48.48 0 1 1 0-.959h4.84c.183-.453.276-.927.276-1.415a3.8 3.8 0 0 0-3.794-3.794c-.16 0-.331.013-.543.043l-.454.066-.085-.452a3.793 3.793 0 0 0-7.453 0l-.084.452-.455-.065a3.778 3.778 0 0 0-.543-.044 3.8 3.8 0 0 0-3.794 3.794c0 .488.093.963.277 1.415h4.98a.48.48 0 0 1 0 .96H4.14l-.132-.267a4.708 4.708 0 0 1-.497-2.108 4.758 4.758 0 0 1 4.995-4.745Z"/><path d="M13.291 18.552V9.444a.218.218 0 0 0-.436 0v9.108a1.603 1.603 0 0 0-1.384 1.585c0 .883.719 1.602 1.602 1.602.883 0 1.602-.719 1.602-1.602 0-.809-.604-1.478-1.384-1.585Zm-.218 2.75a1.167 1.167 0 0 1 0-2.33 1.167 1.167 0 0 1 0 2.33Z"/><path fill-rule="evenodd" clip-rule="evenodd" d="M12.594 9.444a.48.48 0 0 1 .959 0v8.894a1.865 1.865 0 0 1 1.383 1.799A1.865 1.865 0 0 1 13.073 22a1.865 1.865 0 0 1-1.863-1.863c0-.862.589-1.587 1.384-1.799V9.444Zm.48 9.789a.906.906 0 0 0 0 1.808.906.906 0 0 0 0-1.809Z"/><path d="M20.86 14.216c-.809 0-1.478.604-1.584 1.384h-3.913V9.444a.218.218 0 1 0-.436 0v6.592h4.349c.107.78.776 1.384 1.585 1.384.883 0 1.601-.719 1.601-1.602 0-.883-.718-1.602-1.601-1.602Zm0 2.768a1.167 1.167 0 1 1 1.166-1.166c0 .643-.523 1.166-1.165 1.166Z"/><path fill-rule="evenodd" clip-rule="evenodd" d="M14.666 9.444a.48.48 0 1 1 .959 0v5.895h3.437a1.864 1.864 0 0 1 1.799-1.384c1.027 0 1.863.835 1.863 1.863a1.865 1.865 0 0 1-1.863 1.863 1.864 1.864 0 0 1-1.8-1.384h-4.395V9.444Zm6.195 5.47a.906.906 0 0 0 0 1.809.906.906 0 0 0 0-1.81Z"/><path d="M11.226 9.444a.218.218 0 0 0-.436 0V15.6H6.862a1.603 1.603 0 0 0-1.585-1.384c-.883 0-1.602.719-1.602 1.602 0 .883.72 1.602 1.602 1.602.81 0 1.478-.604 1.585-1.384h4.364V9.444Zm-5.949 7.54a1.167 1.167 0 1 1 1.166-1.166c0 .643-.523 1.166-1.166 1.166Z"/><path fill-rule="evenodd" clip-rule="evenodd" d="M10.528 9.444a.48.48 0 1 1 .96 0v6.853H7.075a1.864 1.864 0 0 1-1.799 1.384 1.865 1.865 0 0 1-1.863-1.863c0-1.028.836-1.863 1.863-1.863.863 0 1.587.588 1.799 1.384h3.452V9.444Zm-5.25 5.47a.906.906 0 0 0 0 1.809.906.906 0 0 0 0-1.81Z"/><path d="M6.093 8.938a.218.218 0 0 1-.195-.314A2.363 2.363 0 0 1 8.371 7.32a.218.218 0 0 1-.061.432 1.93 1.93 0 0 0-2.02 1.063.219.219 0 0 1-.197.122Z"/><path fill-rule="evenodd" clip-rule="evenodd" d="M6.132 8.739Zm-.469-.23a2.625 2.625 0 0 1 2.745-1.447l-.037.259.037-.259a.48.48 0 0 1 .407.543.48.48 0 0 1-.54.407h-.003a1.668 1.668 0 0 0-1.748.92.48.48 0 0 1-.642.218"/></g><defs><filter id="a" x="-2" y="-1.5" width="28" height="28" filterUnits="userSpaceOnUse" color-interpolation-filters="sRGB"><feFlood flood-opacity="0" result="BackgroundImageFix"/><feColorMatrix in="SourceAlpha" values="0 0 0 0 0 0 0 0 0 0 0 0 0 0 0 0 0 0 127 0" result="hardAlpha"/><feOffset dy=".5"/><feGaussianBlur stdDeviation="1"/><feColorMatrix values="0 0 0 0 0.376471 0 0 0 0 0.380392 0 0 0 0 0.439216 0 0 0 0.16 0"/><feBlend in2="BackgroundImageFix" result="effect1_dropShadow_13238_235064"/><feColorMatrix in="SourceAlpha" values="0 0 0 0 0 0 0 0 0 0 0 0 0 0 0 0 0 0 127 0" result="hardAlpha"/><feOffset/><feGaussianBlur stdDeviation=".5"/><feColorMatrix values="0 0 0 0 0.156863 0 0 0 0 0.160784 0 0 0 0 0.239216 0 0 0 0.08 0"/><feBlend in2="effect1_dropShadow_13238_235064" result="effect2_dropShadow_13238_235064"/><feBlend in="SourceGraphic" in2="effect2_dropShadow_13238_235064" result="shape"/></filter></defs></svg>
